bag-personal-off-outline.svg

<svg fill="currentColor" viewBox="0 0 24 24"><path d="M20 19.35 2.38 1.73 1.11 3l3.66 3.66C4.27 7.34 4 8.16 4 9v11a2 2 0 0 0 2 2h12c.56 0 1.08-.24 1.46-.65l1.38 1.38 1.27-1.27zM6 9c0-.31.08-.62.22-.89L13.11 15H6zm12 11H6v-4h2v2h1v-2h5.11L18 19.89zM16 7a2 2 0 0 1 2 2v5.8l2 2V9a4 4 0 0 0-4-4V4a2 2 0 0 0-2-2h-4a2 2 0 0 0-2 2v.8L10.2 7zm-6-3h4v1h-4z"/></svg>

<svg  viewBox="0 0 24 24" fill="currentColor"><path  d="M20,19.35L2.38,1.73L1.11,3L4.77,6.66C4.27,7.34 4,8.16 4,9V20A2,2 0 0,0 6,22H18C18.56,22 19.08,21.76 19.46,21.35L20.84,22.73L22.11,21.46L20,19.35M6,9C6,8.69 6.08,8.38 6.22,8.11L13.11,15H6V9M18,20H6V16H8V18H9V16H14.11L18,19.89V20M16,7A2,2 0 0,1 18,9V14.8L20,16.8V9A4,4 0 0,0 16,5V4A2,2 0 0,0 14,2H10A2,2 0 0,0 8,4V4.8L10.2,7H16M10,4H14V5H10V4Z"/></svg>
